src/images/svg/insurance.svg

<svg width="42" height="48" viewBox="0 0 42 48" fill="none" xmlns="http://www.w3.org/2000/svg">
<g clip-path="url(#clip0)">
<path d="M0.812652 20.6131C0.812652 21.1484 0 21.1484 0 20.6131C0 9.23114 9.23114 0 20.6131 0C32 0 41.2263 9.23114 41.2263 20.6131C41.2263 21.1484 40.4185 21.1484 40.4185 20.6131C40.4185 12.9197 27.7762 12.9148 27.7762 20.6131C27.7762 21.1484 26.944 21.1484 26.944 20.6131C26.944 12.9392 14.2822 12.9392 14.2822 20.6131C14.2822 21.1484 13.4501 21.1484 13.4501 20.6131C13.4501 12.9538 0.812652 12.9002 0.812652 20.6131ZM13.5231 17.6253C13.7421 13.1971 14.438 9.22628 15.4501 6.19465C16.2579 3.78589 17.2798 1.9562 18.438 0.92944C9.74696 1.87835 2.71046 8.46715 1.13869 17.0122C4.13139 12.6959 11.0414 13.0414 13.5231 17.6253ZM26.8808 17.4258C26.6569 13.1679 25.9805 9.35766 25.0073 6.45255C22.4963 -1.06569 18.7299 -1.06569 16.219 6.45255C15.2457 9.35766 14.5742 13.1679 14.3455 17.4258C17.0462 12.837 24.18 12.837 26.8808 17.4258ZM40.0876 17.0122C38.5207 8.46715 31.4842 1.87835 22.7883 0.92944C23.9513 1.9562 24.9684 3.78589 25.7762 6.19465C26.7883 9.22628 27.4842 13.1971 27.7032 17.6253C30.1995 13.017 37.1289 12.7445 40.0876 17.0122Z" fill="#FF6B09"/>
<path d="M17.9075 30.045V25.8592C17.1533 26.3605 16.5596 27.1344 16.5596 28.0786C16.5596 28.9985 17.163 29.6069 17.9075 30.045ZM18.7202 31.3445C17.2749 30.6826 15.7518 29.9087 15.7518 28.0786C15.7518 26.1902 17.1874 25.2459 18.7202 24.5402V31.3445Z" fill="#FF6B09"/>
<path d="M23.3188 36.36V40.5936C24.0828 40.0875 24.6813 39.309 24.6813 38.3649C24.6813 37.4355 24.0682 36.8077 23.3188 36.36ZM22.511 35.0559C23.9611 35.7274 25.4939 36.5255 25.4939 38.3649C25.4939 40.2579 24.0487 41.2019 22.511 41.9026V35.0559Z" fill="#FF6B09"/>
<path d="M23.3188 21.0948C26.6472 21.8637 30.0682 24.3553 30.0682 28.078C30.0682 31.2654 24.6813 31.1486 24.6813 28.078C24.6813 27.1291 24.0828 26.3505 23.3188 25.8492V31.8056C26.3991 32.8129 30.0779 34.6183 30.0779 38.3654C30.0779 42.0929 26.657 44.5796 23.3188 45.3436C23.3042 48.8912 17.9173 48.8863 17.9076 45.3388C16.0098 44.9008 14.3601 44.0151 13.1679 42.8423C11.9173 41.6063 11.1777 40.054 11.1777 38.3654C11.1777 35.2266 16.5596 35.2266 16.5596 38.3654C16.5596 39.3045 17.1533 40.0783 17.9076 40.5795V34.628C14.8516 33.6402 11.1533 31.7812 11.1533 28.0683C11.1533 24.3407 14.5742 21.854 17.9076 21.09C17.9222 17.5424 23.309 17.5473 23.3188 21.0948ZM18.7202 21.1046V21.7518C15.5523 22.3796 11.9611 24.4088 11.9611 28.0683C11.9611 31.5866 15.9027 33.1633 18.7202 34.0343V41.8983C17.1971 41.2024 15.7519 40.2632 15.7519 38.3654C15.7519 36.2923 11.9854 36.2923 11.9854 38.3654C11.9854 39.8301 12.6375 41.1829 13.7373 42.2633C15.1339 43.6453 16.8273 44.3022 18.7202 44.6769V45.329C18.7202 47.8254 22.511 47.8254 22.511 45.329V44.6818C25.6886 44.0492 29.2652 42.0199 29.2652 38.3654C29.2652 34.813 25.3334 33.2849 22.511 32.3944V25.1631V24.5353C24.039 25.2312 25.494 26.1704 25.494 28.078C25.494 30.0975 29.2555 30.1802 29.2555 28.078C29.2555 24.4234 25.6837 22.3893 22.511 21.7567V21.1046C22.511 18.6082 18.7202 18.6082 18.7202 21.1046Z" fill="#FF6B09"/>
</g>
<defs>
<clipPath id="clip0">
<rect width="42" height="48" fill="white"/>
</clipPath>
</defs>
</svg>

<svg xmlns="http://www.w3.org/2000/svg" fill="none" viewBox="0 0 42 48"><g fill="#FF6B09" clip-path="url(#clip0)"><path d="M.813 20.613c0 .535-.813.535-.813 0C0 9.231 9.231 0 20.613 0 32 0 41.226 9.231 41.226 20.613c0 .535-.807.535-.807 0 0-7.693-12.643-7.698-12.643 0 0 .535-.832.535-.832 0 0-7.674-12.662-7.674-12.662 0 0 .535-.832.535-.832 0 0-7.66-12.637-7.713-12.637 0zm12.71-2.988c.22-4.428.915-8.399 1.927-11.43.808-2.41 1.83-4.239 2.988-5.266-8.691.95-15.728 7.538-17.3 16.083 2.993-4.316 9.903-3.97 12.385.613zm13.358-.2c-.224-4.257-.9-8.067-1.874-10.972-2.51-7.519-6.277-7.519-8.788 0-.973 2.905-1.645 6.715-1.874 10.973 2.701-4.589 9.835-4.589 12.536 0zm13.207-.413C38.52 8.467 31.484 1.878 22.788.93c1.163 1.027 2.18 2.857 2.988 5.266 1.012 3.031 1.708 7.002 1.927 11.43 2.497-4.608 9.426-4.88 12.385-.613zM17.907 30.045v-4.186c-.754.501-1.347 1.275-1.347 2.22 0 .92.603 1.528 1.348 1.966zm.813 1.3c-1.445-.662-2.968-1.436-2.968-3.266 0-1.889 1.435-2.833 2.968-3.539v6.805zM23.319 36.36v4.234c.764-.507 1.362-1.285 1.362-2.23 0-.928-.613-1.556-1.362-2.004zm-.808-1.304c1.45.671 2.983 1.47 2.983 3.309 0 1.893-1.445 2.837-2.983 3.538v-6.847z"/><path d="M23.319 21.095c3.328.769 6.75 3.26 6.75 6.983 0 3.187-5.388 3.07-5.388 0 0-.949-.598-1.727-1.362-2.229v5.957c3.08 1.007 6.759 2.812 6.759 6.56 0 3.727-3.421 6.214-6.76 6.978-.014 3.547-5.4 3.542-5.41-.005-1.898-.438-3.548-1.324-4.74-2.497-1.25-1.236-1.99-2.788-1.99-4.477 0-3.138 5.382-3.138 5.382 0 0 .94.593 1.713 1.348 2.215v-5.952c-3.056-.988-6.755-2.847-6.755-6.56 0-3.727 3.421-6.214 6.755-6.978.014-3.548 5.401-3.543 5.41.005zm-4.599.01v.647c-3.168.628-6.759 2.657-6.759 6.316 0 3.519 3.942 5.095 6.76 5.966v7.864c-1.524-.696-2.97-1.635-2.97-3.533 0-2.073-3.766-2.073-3.766 0 0 1.465.652 2.818 1.752 3.898 1.397 1.382 3.09 2.04 4.983 2.414v.652c0 2.496 3.791 2.496 3.791 0v-.647c3.178-.633 6.754-2.662 6.754-6.317 0-3.552-3.932-5.08-6.754-5.97v-7.86c1.528.696 2.983 1.635 2.983 3.543 0 2.02 3.762 2.102 3.762 0 0-3.655-3.572-5.689-6.745-6.321v-.652c0-2.497-3.79-2.497-3.79 0z"/></g><defs><clipPath id="clip0"><path fill="#fff" d="M0 0h42v48H0z"/></clipPath></defs></svg>
